X: 965
T: Is the big man within?
C: anon.
O: Ireland
B: Francis O'Neill: "The Dance Music of Ireland" (1907) no. 965
R: Long dance, set dance
Z: Transcribed by Frank Nordberg - http://www.musicaviva.com
F: http://www.musicaviva.com/abc/tunes/ireland/oneill-1001/oneill-1001-096
5.abc
M: 9/8
L: 1/8
K: D
(G|F)DF G2E E2(G|F)DF A2D D2(E|F)DF G2E E2c|dcB A2D D2:|
M: 6/8
L: 1/8
G|F2A ABc|ded cBA|BcB AGF|B2E E2G|F2A ABc|ded cBA|BcB BAF|A2D D2:|
W:
W:
W: From Musica Viva - http://www.musicaviva.com
W: the Internet center for free sheet music downloads.


